X: 34672
T: Road To Corofin, The
R: reel
M: 4/4
K: Dmajor
d2Ad BAFD|EDEF DEFA|d2Ad fded|BAFA BAFA|
d2Ad fdef|g2ed cAag|f2ed cAGE|EDEF D4:|
d2Ad fdef|g2ed cAGE|EDFA d3A|BAFA BAFA|
d2Ad fdef|g2ed cAag|f2ed cAGE|EDEF D4:|

